icons/refund-2-line.svg

<svg xmlns="http://www.w3.org/2000/svg" width="24" height="24" fill="none"><g clip-path="url(#a)"><g><path fill="#121212" d="M5.671 4.257C9.599 1.038 15.404 1.262 19.071 4.929C22.976 8.834 22.976 15.166 19.071 19.071C15.166 22.976 8.834 22.976 4.929 19.071C3.73063 17.8743 2.85607 16.3926 2.38746 14.7651C1.91884 13.1376 1.87154 11.4178 2.25 9.767L2.327 9.454L4.261 9.964C3.78154 11.7863 3.96069 13.7193 4.76688 15.4224C5.57306 17.1255 6.95453 18.4894 8.66783 19.2737C10.3811 20.058 12.3163 20.2123 14.1323 19.7096C15.9482 19.2068 17.5284 18.0792 18.5944 16.5254C19.6604 14.9717 20.1437 13.0915 19.9592 11.2163C19.7747 9.34103 18.9342 7.59111 17.5859 6.2749C16.2375 4.95869 14.4678 4.16066 12.5887 4.02146C10.7095 3.88226 8.84159 4.41082 7.314 5.514L7.093 5.68L8.11 6.697L3.514 7.757L4.574 3.161L5.67 4.257H5.671ZM13 6V8H15.5V10H10C9.87505 9.99977 9.75455 10.0463 9.66222 10.1305C9.56988 10.2147 9.51241 10.3304 9.50112 10.4548C9.48983 10.5793 9.52554 10.7034 9.60122 10.8028C9.67689 10.9023 9.78705 10.9697 9.91 10.992L10 11H14C14.663 11 15.2989 11.2634 15.7678 11.7322C16.2366 12.2011 16.5 12.837 16.5 13.5C16.5 14.163 16.2366 14.7989 15.7678 15.2678C15.2989 15.7366 14.663 16 14 16H13V18H11V16H8.5V14H14C14.1249 14.0002 14.2454 13.9537 14.3378 13.8695C14.4301 13.7853 14.4876 13.6696 14.4989 13.5452C14.5102 13.4207 14.4745 13.2966 14.3988 13.1972C14.3231 13.0977 14.2129 13.0303 14.09 13.008L14 13H10C9.33696 13 8.70107 12.7366 8.23223 12.2678C7.76339 11.7989 7.5 11.163 7.5 10.5C7.5 9.83696 7.76339 9.20107 8.23223 8.73223C8.70107 8.26339 9.33696 8 10 8H11V6H13Z"/></g></g><defs><clipPath id="a"><rect width="24" height="24" fill="white"/></clipPath></defs></svg>

<svg width="24" height="24" fill="none" xmlns="http://www.w3.org/2000/svg"><g clip-path="url(#a)"><path d="M5.671 4.257c3.928-3.219 9.733-2.995 13.4.672 3.905 3.905 3.905 10.237 0 14.142-3.905 3.905-10.237 3.905-14.142 0A9.993 9.993 0 0 1 2.25 9.767l.077-.313 1.934.51a8 8 0 1 0 3.053-4.45l-.221.166L8.11 6.697l-4.596 1.06 1.06-4.596L5.67 4.257h.001ZM13 6v2h2.5v2H10a.5.5 0 0 0-.09.992L10 11h4a2.5 2.5 0 0 1 0 5h-1v2h-2v-2H8.5v-2H14a.5.5 0 0 0 .09-.992L14 13h-4a2.5 2.5 0 0 1 0-5h1V6h2Z" /></g><defs><clipPath id="a"><path fill="#fff" d="M0 0h24v24H0z"/></clipPath></defs></svg>
